svgs/regular/inbox-out.svg

<svg xmlns="http://www.w3.org/2000/svg" viewBox="0 0 512 512"><!--! Font Awesome Pro 6.0.0-alpha3 by @fontawesome - https://fontawesome.com License - https://fontawesome.com/license (Commercial License) --><path d="M464 320h-96c-9.094 0-17.41 5.125-21.47 13.28L321.2 384H190.8l-25.38-50.72C161.4 325.1 153.1 320 144 320H32c-17.67 0-32 14.33-32 32v96c0 35.35 28.65 64 64 64h384c35.35 0 64-28.65 64-64v-80C512 341.5 490.5 320 464 320zM464 448c0 8.822-7.178 16-16 16H64c-8.822 0-16-7.178-16-16v-80h81.16l25.38 50.72C158.6 426.9 166.9 432 176 432h160c9.094 0 17.41-5.125 21.47-13.28L382.8 368H464V448zM169.6 152.3L232 85.13V296C232 309.3 242.8 320 256 320s24-10.75 24-24V85.13l62.41 67.21C347.2 157.4 353.6 160 360 160c5.844 0 11.72-2.125 16.34-6.406c9.688-9.031 10.25-24.22 1.25-33.94l-104-112c-9.125-9.75-26.06-9.75-35.19 0l-104 112c-9 9.719-8.438 24.91 1.25 33.94C145.4 162.6 160.5 162.1 169.6 152.3z"/></svg>

<svg xmlns="http://www.w3.org/2000/svg" viewBox="0 0 512 512"><!-- Font Awesome Pro 6.0.0-alpha2 by @fontawesome - https://fontawesome.com License - https://fontawesome.com/license (Commercial License) --><path d="M464 320H368C358.906 320 350.594 325.125 346.531 333.281L321.156 384H190.844L165.469 333.281C161.406 325.125 153.094 320 144 320H32C14.328 320 0 334.326 0 352V448C0 483.346 28.654 512 64 512H448C483.348 512 512 483.346 512 448V368C512 341.49 490.51 320 464 320ZM464 448C464 456.822 456.822 464 448 464H64C55.178 464 48 456.822 48 448V368H129.156L154.531 418.719C158.594 426.875 166.906 432 176 432H336C345.094 432 353.406 426.875 357.469 418.719L382.844 368H464V448ZM169.594 152.344L232 85.131V296C232 309.25 242.75 320 256 320S280 309.25 280 296V85.131L342.406 152.344C347.156 157.438 353.562 160 360 160C365.844 160 371.719 157.875 376.344 153.594C386.031 144.562 386.594 129.375 377.594 119.656L273.594 7.656C264.469 -2.094 247.531 -2.094 238.406 7.656L134.406 119.656C125.406 129.375 125.969 144.562 135.656 153.594C145.375 162.594 160.531 162.062 169.594 152.344Z"/></svg>
